X:25
T:Bromley Bells THO4.025
M:C|
L:1/8
Z:vmp. Peter Dunk 2010/11.from a transcription by Fynn Titford-Mock 2007
B:Thompson's Compleat Collection of 200 Favourite Country Dances Volume IV.
Q:1/2=75
K:F
Ac Tc2 dBGB|cbge (f/e/f/g/) af|Ac Tc2 dBGf|\
ecd=B c2C2::g2 ec a2 fc|BGbg fed^c|
dAfd gebg|fed^c d2 DA/B/|cAaf dBbg|\
afef (g/f/e/d/) c2|dfBd cegb|afce f2F2:|
